img/sk-logo.svg

<svg xmlns="http://www.w3.org/2000/svg" width="80" height="144" viewBox="0 0 80 144"><path fill="#fff" d="M28.2 132v-39.4l-13.6-8v56.2c-6.6 0-13.6-13-13.6-27.4v-78.7c0-17.2 1.3-32.7 27.8-32.7-11.9 3.8-14.2 16.3-14.2 24.2v42.4l27.2 16.1v28c.1 18.7-13.6 19.3-13.6 19.3z"/><path fill="#fff" d="M55.6 16.6v25.9l-13.6 9.2v-43.1s-13.6-.4-13.6 25.7v25l27.2 16.1v43c0 7.9-2.3 19.9-14.1 23.6 26.4 0 27.8-15.6 27.8-32.9v-42.5l-15.2-8.3 15.9-10.2v-15.7c0-11.8 9.2-15.9 9.2-15.9h-23.6z"/></svg>

<?xml version="1.0" encoding="utf-8"?>
<!-- Generator: Adobe Illustrator 18.1.0, SVG Export Plug-In . SVG Version: 6.00 Build 0)  -->
<!DOCTYPE svg PUBLIC "-//W3C//DTD SVG 1.1//EN" "http://www.w3.org/Graphics/SVG/1.1/DTD/svg11.dtd">
<svg version="1.1" id="Layer_1" xmlns="http://www.w3.org/2000/svg" xmlns:xlink="http://www.w3.org/1999/xlink" x="0px" y="0px"
	 width="80px" height="144px" viewBox="0 0 80 144" enable-background="new 0 0 80 144" xml:space="preserve">
<g>
	<g>
    <path fill="#fff" id="logo-path-left" d="M28.2,132V92.6l-13.6-8v56.2C8,140.8,1,127.8,1,113.4V34.7C1,17.5,2.3,2,28.8,2
			C16.9,5.8,14.6,18.3,14.6,26.2v42.4l27.2,16.1v28C41.9,131.4,28.2,132,28.2,132z"/>
	</g>
	<g>
    <path fill="#fff" id="logo-path-right" d="M55.6,16.6v25.9l-13.6,9.2V8.6c0,0-13.6-0.4-13.6,25.7v25l27.2,16.1v43c0,7.9-2.3,19.9-14.1,23.6
			c26.4,0,27.8-15.6,27.8-32.9V66.6l-15.2-8.3l15.9-10.2V32.4c0-11.8,9.2-15.9,9.2-15.9H55.6z"/>
	</g>
</g>
</svg>
